SVG_Azure_Grouped/AI/Cognitive Services Customised Experience.svg

<?xml version="1.0" encoding="UTF-8" standalone="no"?>
<!-- Generated by Microsoft Visio, SVG Export Cognitive Services Customised Experience.svg Page-1 -->

<svg
   xmlns:dc="http://purl.org/dc/elements/1.1/"
   xmlns:cc="http://creativecommons.org/ns#"
   xmlns:rdf="http://www.w3.org/1999/02/22-rdf-syntax-ns#"
   xmlns:svg="http://www.w3.org/2000/svg"
   xmlns="http://www.w3.org/2000/svg"
   xmlns:sodipodi="http://sodipodi.sourceforge.net/DTD/sodipodi-0.dtd"
   xmlns:inkscape="http://www.inkscape.org/namespaces/inkscape"
   width="0.78743315in"
   height="0.7874068in"
   viewBox="0 0 56.695198 56.693113"
   xml:space="preserve"
   class="st3"
   version="1.1"
   id="svg126"
   sodipodi:docname="Cognitive Services Customised Experience.svg"
   style="font-size:12px;overflow:visible;color-interpolation-filters:sRGB;fill:none;fill-rule:evenodd;stroke-linecap:square;stroke-miterlimit:3"
   inkscape:version="0.92.5 (2060ec1f9f, 2020-04-08)"><metadata
   id="metadata132"><rdf:RDF><cc:Work
       rdf:about=""><dc:format>image/svg+xml</dc:format><dc:type
         rdf:resource="http://purl.org/dc/dcmitype/StillImage" /></cc:Work></rdf:RDF></metadata><defs
   id="defs130" /><sodipodi:namedview
   pagecolor="#ffffff"
   bordercolor="#666666"
   borderopacity="1"
   objecttolerance="10"
   gridtolerance="10"
   guidetolerance="10"
   inkscape:pageopacity="0"
   inkscape:pageshadow="2"
   inkscape:window-width="640"
   inkscape:window-height="480"
   id="namedview128"
   showgrid="false"
   inkscape:zoom="1.7151442"
   inkscape:cx="37.795259"
   inkscape:cy="23.447062"
   inkscape:window-x="0"
   inkscape:window-y="0"
   inkscape:window-maximized="0"
   inkscape:current-layer="svg126" />
	<style
   type="text/css"
   id="style2">
	<![CDATA[
		.st1 {fill:#0078d4;stroke:none;stroke-linecap:butt;stroke-width:12.4898}
		.st2 {fill:#50e6ff;stroke:none;stroke-linecap:butt;stroke-width:12.4898}
		.st3 {fill:none;fill-rule:evenodd;font-size:12px;overflow:visible;stroke-linecap:square;stroke-miterlimit:3}
	]]>
	</style>

	<g
   id="g124"
   transform="translate(-12.4898,-12.491172)">
		<title
   id="title4">Page-1</title>
		<g
   id="group18624-1"
   transform="translate(12.4898,-34.0157)">
			<title
   id="title6">Cognitive Services Customised Experience.18624</title>
			<g
   id="shape18625-2"
   transform="translate(42.2713,-42.2687)">
				<title
   id="title8">Sheet.18625</title>
				<path
   d="M 0,88.78 H 14.42 V 103.2 H 8.45 V 94.75 H 0 Z"
   class="st1"
   id="path10"
   inkscape:connector-curvature="0"
   style="fill:#0078d4;stroke:none;stroke-width:12.48980045;stroke-linecap:butt" />
			</g>
			<g
   id="shape18626-4"
   transform="translate(16.9031,-42.2733)">
				<title
   id="title13">Sheet.18626</title>
				<path
   d="M 5.97,103.2 H 0 V 88.78 h 14.42 v 5.97 H 5.97 Z"
   class="st1"
   id="path15"
   inkscape:connector-curvature="0"
   style="fill:#0078d4;stroke:none;stroke-width:12.48980045;stroke-linecap:butt" />
			</g>
			<g
   id="shape18627-6"
   transform="translate(42.2713,-16.9495)">
				<title
   id="title18">Sheet.18627</title>
				<path
   d="m 8.45,88.78 h 5.97 V 103.2 H 0 v -5.97 h 8.45 z"
   class="st1"
   id="path20"
   inkscape:connector-curvature="0"
   style="fill:#0078d4;stroke:none;stroke-width:12.48980045;stroke-linecap:butt" />
			</g>
			<g
   id="shape18628-8"
   transform="translate(16.9031,-16.9403)">
				<title
   id="title23">Sheet.18628</title>
				<path
   d="M 0,103.2 V 88.78 h 5.97 v 8.45 h 8.45 v 5.97 z"
   class="st1"
   id="path25"
   inkscape:connector-curvature="0"
   style="fill:#0078d4;stroke:none;stroke-width:12.48980045;stroke-linecap:butt" />
			</g>
			<g
   id="shape18629-10"
   transform="translate(25.3632,-33.8128)">
				<title
   id="title28">Sheet.18629</title>
				<path
   d="M 2.98,103.2 C 1.33,103.2 0,101.87 0,100.22 c 0,-1.66 1.33,-2.99 2.98,-2.99 1.65,0 2.99,1.33 2.99,2.99 0,1.64 -1.35,2.98 -2.99,2.98 z"
   class="st2"
   id="path30"
   inkscape:connector-curvature="0"
   style="fill:#50e6ff;stroke:none;stroke-width:12.48980045;stroke-linecap:butt" />
			</g>
			<g
   id="shape18630-12"
   transform="translate(33.817,-42.2649)">
				<title
   id="title33">Sheet.18630</title>
				<path
   d="M 2.98,103.2 C 1.33,103.2 0,101.87 0,100.22 c 0,-1.66 1.33,-2.99 2.98,-2.99 1.65,0 2.99,1.33 2.99,2.99 0,1.64 -1.35,2.98 -2.99,2.98 z"
   class="st2"
   id="path35"
   inkscape:connector-curvature="0"
   style="fill:#50e6ff;stroke:none;stroke-width:12.48980045;stroke-linecap:butt" />
			</g>
			<g
   id="shape18631-14"
   transform="translate(42.2713,-33.8128)">
				<title
   id="title38">Sheet.18631</title>
				<path
   d="M 2.98,103.2 C 1.33,103.2 0,101.87 0,100.22 c 0,-1.66 1.33,-2.99 2.98,-2.99 1.65,0 2.99,1.33 2.99,2.99 0,1.64 -1.35,2.98 -2.99,2.98 z"
   class="st2"
   id="path40"
   inkscape:connector-curvature="0"
   style="fill:#50e6ff;stroke:none;stroke-width:12.48980045;stroke-linecap:butt" />
			</g>
			<g
   id="shape18632-16"
   transform="translate(33.817,-25.3608)">
				<title
   id="title43">Sheet.18632</title>
				<path
   d="M 2.98,103.2 C 1.33,103.2 0,101.87 0,100.22 c 0,-1.66 1.33,-2.99 2.98,-2.99 1.65,0 2.99,1.33 2.99,2.99 0,1.64 -1.35,2.98 -2.99,2.98 z"
   class="st2"
   id="path45"
   inkscape:connector-curvature="0"
   style="fill:#50e6ff;stroke:none;stroke-width:12.48980045;stroke-linecap:butt" />
			</g>
			<g
   id="shape18633-18"
   transform="translate(33.817,-33.8128)">
				<title
   id="title48">Sheet.18633</title>
				<path
   d="M 2.98,103.2 C 1.33,103.2 0,101.87 0,100.22 c 0,-1.66 1.33,-2.99 2.98,-2.99 1.65,0 2.99,1.33 2.99,2.99 0,1.64 -1.35,2.98 -2.99,2.98 z"
   class="st2"
   id="path50"
   inkscape:connector-curvature="0"
   style="fill:#50e6ff;stroke:none;stroke-width:12.48980045;stroke-linecap:butt" />
			</g>
			<g
   id="shape18634-20"
   transform="translate(0,-50.7216)">
				<title
   id="title53">Sheet.18634</title>
				<path
   d="M 2.98,103.2 C 1.33,103.2 0,101.87 0,100.22 c 0,-1.66 1.33,-2.99 2.98,-2.99 1.65,0 2.99,1.33 2.99,2.99 0,1.64 -1.35,2.98 -2.99,2.98 z"
   class="st2"
   id="path55"
   inkscape:connector-curvature="0"
   style="fill:#50e6ff;stroke:none;stroke-width:12.48980045;stroke-linecap:butt" />
			</g>
			<g
   id="shape18635-22"
   transform="translate(8.45438,-50.7216)">
				<title
   id="title58">Sheet.18635</title>
				<path
   d="M 5.97,97.23 H 0 v 5.97 h 5.97 z"
   class="st2"
   id="path60"
   inkscape:connector-curvature="0"
   style="fill:#50e6ff;stroke:none;stroke-width:12.48980045;stroke-linecap:butt" />
			</g>
			<g
   id="shape18636-24"
   transform="translate(5.77625e-4,-42.2649)">
				<title
   id="title63">Sheet.18636</title>
				<path
   d="M 5.97,97.23 H 0 v 5.97 h 5.97 z"
   class="st2"
   id="path65"
   inkscape:connector-curvature="0"
   style="fill:#50e6ff;stroke:none;stroke-width:12.48980045;stroke-linecap:butt" />
			</g>
			<g
   id="shape18637-26"
   transform="translate(8.45438,-42.2649)">
				<title
   id="title68">Sheet.18637</title>
				<path
   d="M 5.97,97.23 H 0 v 5.97 h 5.97 z"
   class="st2"
   id="path70"
   inkscape:connector-curvature="0"
   style="fill:#50e6ff;stroke:none;stroke-width:12.48980045;stroke-linecap:butt" />
			</g>
			<g
   id="shape18638-28"
   transform="translate(5.77625e-4,-33.8128)">
				<title
   id="title73">Sheet.18638</title>
				<path
   d="M 5.97,97.23 H 0 v 5.97 h 5.97 z"
   class="st2"
   id="path75"
   inkscape:connector-curvature="0"
   style="fill:#50e6ff;stroke:none;stroke-width:12.48980045;stroke-linecap:butt" />
			</g>
			<g
   id="shape18639-30"
   transform="translate(8.45438,-33.8128)">
				<title
   id="title78">Sheet.18639</title>
				<path
   d="M 2.98,103.2 C 1.33,103.2 0,101.87 0,100.22 c 0,-1.66 1.33,-2.99 2.98,-2.99 1.65,0 2.99,1.33 2.99,2.99 0,1.64 -1.35,2.98 -2.99,2.98 z"
   class="st2"
   id="path80"
   inkscape:connector-curvature="0"
   style="fill:#50e6ff;stroke:none;stroke-width:12.48980045;stroke-linecap:butt" />
			</g>
			<g
   id="shape18640-32"
   transform="translate(5.77625e-4,-16.9087)">
				<title
   id="title83">Sheet.18640</title>
				<path
   d="M 5.97,97.23 H 0 v 5.97 h 5.97 z"
   class="st2"
   id="path85"
   inkscape:connector-curvature="0"
   style="fill:#50e6ff;stroke:none;stroke-width:12.48980045;stroke-linecap:butt" />
			</g>
			<g
   id="shape18641-34"
   transform="translate(8.45438,-8.45672)">
				<title
   id="title88">Sheet.18641</title>
				<path
   d="M 5.97,97.23 H 0 v 5.97 h 5.97 z"
   class="st2"
   id="path90"
   inkscape:connector-curvature="0"
   style="fill:#50e6ff;stroke:none;stroke-width:12.48980045;stroke-linecap:butt" />
			</g>
			<g
   id="shape18642-36"
   transform="translate(50.7252)">
				<title
   id="title93">Sheet.18642</title>
				<path
   d="M 2.98,103.2 C 1.33,103.2 0,101.87 0,100.22 c 0,-1.66 1.33,-2.99 2.98,-2.99 1.65,0 2.99,1.33 2.99,2.99 0,1.64 -1.35,2.98 -2.99,2.98 z"
   class="st2"
   id="path95"
   inkscape:connector-curvature="0"
   style="fill:#50e6ff;stroke:none;stroke-width:12.48980045;stroke-linecap:butt" />
			</g>
			<g
   id="shape18643-38"
   transform="translate(33.817)">
				<title
   id="title98">Sheet.18643</title>
				<path
   d="M 5.97,97.23 H 0 v 5.97 h 5.97 z"
   class="st2"
   id="path100"
   inkscape:connector-curvature="0"
   style="fill:#50e6ff;stroke:none;stroke-width:12.48980045;stroke-linecap:butt" />
			</g>
			<g
   id="shape18644-40"
   transform="translate(42.2713,-8.45672)">
				<title
   id="title103">Sheet.18644</title>
				<path
   d="M 5.97,97.23 H 0 v 5.97 h 5.97 z"
   class="st2"
   id="path105"
   inkscape:connector-curvature="0"
   style="fill:#50e6ff;stroke:none;stroke-width:12.48980045;stroke-linecap:butt" />
			</g>
			<g
   id="shape18645-42"
   transform="translate(16.9087)">
				<title
   id="title108">Sheet.18645</title>
				<path
   d="M 2.98,103.2 C 1.33,103.2 0,101.87 0,100.22 c 0,-1.66 1.33,-2.99 2.98,-2.99 1.65,0 2.99,1.33 2.99,2.99 0,1.64 -1.35,2.98 -2.99,2.98 z"
   class="st2"
   id="path110"
   inkscape:connector-curvature="0"
   style="fill:#50e6ff;stroke:none;stroke-width:12.48980045;stroke-linecap:butt" />
			</g>
			<g
   id="shape18646-44"
   transform="translate(8.45438)">
				<title
   id="title113">Sheet.18646</title>
				<path
   d="M 5.97,97.23 H 0 v 5.97 h 5.97 z"
   class="st2"
   id="path115"
   inkscape:connector-curvature="0"
   style="fill:#50e6ff;stroke:none;stroke-width:12.48980045;stroke-linecap:butt" />
			</g>
			<g
   id="shape18647-46"
   transform="translate(25.3632,-8.45672)">
				<title
   id="title118">Sheet.18647</title>
				<path
   d="M 5.97,97.23 H 0 v 5.97 h 5.97 z"
   class="st2"
   id="path120"
   inkscape:connector-curvature="0"
   style="fill:#50e6ff;stroke:none;stroke-width:12.48980045;stroke-linecap:butt" />
			</g>
		</g>
	</g>
</svg>

<?xml version="1.0" encoding="UTF-8" standalone="no"?>
<!DOCTYPE svg PUBLIC "-//W3C//DTD SVG 1.1//EN" "http://www.w3.org/Graphics/SVG/1.1/DTD/svg11.dtd">
<!-- Generated by Microsoft Visio, SVG Export Cognitive Services Customised Experience.svg Page-1 -->
<svg xmlns="http://www.w3.org/2000/svg" xmlns:xlink="http://www.w3.org/1999/xlink" xmlns:ev="http://www.w3.org/2001/xml-events"
		width="1.13434in" height="1.43331in" viewBox="0 0 81.6725 103.198" xml:space="preserve" color-interpolation-filters="sRGB"
		class="st3">
	<style type="text/css">
	<![CDATA[
		.st1 {fill:#0078d4;stroke:none;stroke-linecap:butt;stroke-width:12.4898}
		.st2 {fill:#50e6ff;stroke:none;stroke-linecap:butt;stroke-width:12.4898}
		.st3 {fill:none;fill-rule:evenodd;font-size:12px;overflow:visible;stroke-linecap:square;stroke-miterlimit:3}
	]]>
	</style>

	<g>
		<title>Page-1</title>
		<g id="group18194-1" transform="translate(12.4898,-34.0157)">
			<title>Cognitive Services Customised Experience.18194</title>
			<g id="shape18195-2" transform="translate(42.2713,-42.2687)">
				<title>Sheet.18195</title>
				<path d="M0 88.78 L14.42 88.78 L14.42 103.2 L8.45 103.2 L8.45 94.75 L0 94.75 L0 88.78 Z" class="st1"/>
			</g>
			<g id="shape18196-4" transform="translate(16.9031,-42.2733)">
				<title>Sheet.18196</title>
				<path d="M5.97 103.2 L0 103.2 L0 88.78 L14.42 88.78 L14.42 94.75 L5.97 94.75 L5.97 103.2 Z" class="st1"/>
			</g>
			<g id="shape18197-6" transform="translate(42.2713,-16.9495)">
				<title>Sheet.18197</title>
				<path d="M8.45 88.78 L14.42 88.78 L14.42 103.2 L0 103.2 L0 97.23 L8.45 97.23 L8.45 88.78 Z" class="st1"/>
			</g>
			<g id="shape18198-8" transform="translate(16.9031,-16.9403)">
				<title>Sheet.18198</title>
				<path d="M0 103.2 L0 88.78 L5.97 88.78 L5.97 97.23 L14.42 97.23 L14.42 103.2 L0 103.2 Z" class="st1"/>
			</g>
			<g id="shape18199-10" transform="translate(25.3632,-33.8128)">
				<title>Sheet.18199</title>
				<path d="M2.98 103.2 C1.33 103.2 0 101.87 0 100.22 C0 98.56 1.33 97.23 2.98 97.23 C4.63 97.23 5.97 98.56 5.97 100.22
							 C5.97 101.86 4.62 103.2 2.98 103.2 Z" class="st2"/>
			</g>
			<g id="shape18200-12" transform="translate(33.817,-42.2649)">
				<title>Sheet.18200</title>
				<path d="M2.98 103.2 C1.33 103.2 0 101.87 0 100.22 C0 98.56 1.33 97.23 2.98 97.23 C4.63 97.23 5.97 98.56 5.97 100.22
							 C5.97 101.86 4.62 103.2 2.98 103.2 Z" class="st2"/>
			</g>
			<g id="shape18201-14" transform="translate(42.2713,-33.8128)">
				<title>Sheet.18201</title>
				<path d="M2.98 103.2 C1.33 103.2 0 101.87 0 100.22 C0 98.56 1.33 97.23 2.98 97.23 C4.63 97.23 5.97 98.56 5.97 100.22
							 C5.97 101.86 4.62 103.2 2.98 103.2 Z" class="st2"/>
			</g>
			<g id="shape18202-16" transform="translate(33.817,-25.3608)">
				<title>Sheet.18202</title>
				<path d="M2.98 103.2 C1.33 103.2 0 101.87 0 100.22 C0 98.56 1.33 97.23 2.98 97.23 C4.63 97.23 5.97 98.56 5.97 100.22
							 C5.97 101.86 4.62 103.2 2.98 103.2 Z" class="st2"/>
			</g>
			<g id="shape18203-18" transform="translate(33.817,-33.8128)">
				<title>Sheet.18203</title>
				<path d="M2.98 103.2 C1.33 103.2 0 101.87 0 100.22 C0 98.56 1.33 97.23 2.98 97.23 C4.63 97.23 5.97 98.56 5.97 100.22
							 C5.97 101.86 4.62 103.2 2.98 103.2 Z" class="st2"/>
			</g>
			<g id="shape18204-20" transform="translate(-1.1291E-13,-50.7216)">
				<title>Sheet.18204</title>
				<path d="M2.98 103.2 C1.33 103.2 0 101.87 0 100.22 C0 98.56 1.33 97.23 2.98 97.23 C4.63 97.23 5.97 98.56 5.97 100.22
							 C5.97 101.86 4.62 103.2 2.98 103.2 Z" class="st2"/>
			</g>
			<g id="shape18205-22" transform="translate(8.45438,-50.7216)">
				<title>Sheet.18205</title>
				<path d="M5.97 97.23 L0 97.23 L0 103.2 L5.97 103.2 L5.97 97.23 Z" class="st2"/>
			</g>
			<g id="shape18206-24" transform="translate(0.000577625,-42.2649)">
				<title>Sheet.18206</title>
				<path d="M5.97 97.23 L0 97.23 L0 103.2 L5.97 103.2 L5.97 97.23 Z" class="st2"/>
			</g>
			<g id="shape18207-26" transform="translate(8.45438,-42.2649)">
				<title>Sheet.18207</title>
				<path d="M5.97 97.23 L0 97.23 L0 103.2 L5.97 103.2 L5.97 97.23 Z" class="st2"/>
			</g>
			<g id="shape18208-28" transform="translate(0.000577625,-33.8128)">
				<title>Sheet.18208</title>
				<path d="M5.97 97.23 L0 97.23 L0 103.2 L5.97 103.2 L5.97 97.23 Z" class="st2"/>
			</g>
			<g id="shape18209-30" transform="translate(8.45438,-33.8128)">
				<title>Sheet.18209</title>
				<path d="M2.98 103.2 C1.33 103.2 0 101.87 0 100.22 C0 98.56 1.33 97.23 2.98 97.23 C4.63 97.23 5.97 98.56 5.97 100.22
							 C5.97 101.86 4.62 103.2 2.98 103.2 Z" class="st2"/>
			</g>
			<g id="shape18210-32" transform="translate(0.000577625,-16.9087)">
				<title>Sheet.18210</title>
				<path d="M5.97 97.23 L0 97.23 L0 103.2 L5.97 103.2 L5.97 97.23 Z" class="st2"/>
			</g>
			<g id="shape18211-34" transform="translate(8.45438,-8.45672)">
				<title>Sheet.18211</title>
				<path d="M5.97 97.23 L0 97.23 L0 103.2 L5.97 103.2 L5.97 97.23 Z" class="st2"/>
			</g>
			<g id="shape18212-36" transform="translate(50.7252,-5.68434E-14)">
				<title>Sheet.18212</title>
				<path d="M2.98 103.2 C1.33 103.2 0 101.87 0 100.22 C0 98.56 1.33 97.23 2.98 97.23 C4.63 97.23 5.97 98.56 5.97 100.22
							 C5.97 101.86 4.62 103.2 2.98 103.2 Z" class="st2"/>
			</g>
			<g id="shape18213-38" transform="translate(33.817,-5.68434E-14)">
				<title>Sheet.18213</title>
				<path d="M5.97 97.23 L0 97.23 L0 103.2 L5.97 103.2 L5.97 97.23 Z" class="st2"/>
			</g>
			<g id="shape18214-40" transform="translate(42.2713,-8.45672)">
				<title>Sheet.18214</title>
				<path d="M5.97 97.23 L0 97.23 L0 103.2 L5.97 103.2 L5.97 97.23 Z" class="st2"/>
			</g>
			<g id="shape18215-42" transform="translate(16.9087,-5.68434E-14)">
				<title>Sheet.18215</title>
				<path d="M2.98 103.2 C1.33 103.2 0 101.87 0 100.22 C0 98.56 1.33 97.23 2.98 97.23 C4.63 97.23 5.97 98.56 5.97 100.22
							 C5.97 101.86 4.62 103.2 2.98 103.2 Z" class="st2"/>
			</g>
			<g id="shape18216-44" transform="translate(8.45438,-5.68434E-14)">
				<title>Sheet.18216</title>
				<path d="M5.97 97.23 L0 97.23 L0 103.2 L5.97 103.2 L5.97 97.23 Z" class="st2"/>
			</g>
			<g id="shape18217-46" transform="translate(25.3632,-8.45672)">
				<title>Sheet.18217</title>
				<path d="M5.97 97.23 L0 97.23 L0 103.2 L5.97 103.2 L5.97 97.23 Z" class="st2"/>
			</g>
		</g>
	</g>
</svg>
